X: 2764
T: Banks Of The Skiach, The
R: march
M: 
K: Amixolydian
M: 6/8
|:e|AAA AAA|Bee edg|GGG GGG|Bde dBe|
AAA AAA|Bde aea|geg Bde|AGA A2:|
e|AAA aAa|efg afe|GGG gfg|Bde dBG|
AAA aAa|efg aea|geg Bde|AGA A2e|
AAA aAa|efg afe|GGG gfg|Bde dBG|
Bde dBd|efg aea|geg Bde|AGA ABd||
|:eAA e2d|Bde gfg|dBG d2e|Bde dBd|
eAA e2d|Bde aea|geg Bde|1 AGA ABd:|2 AGA A2e||
A2a gea|ede ged|BGg gfg|Bde dBG|
A2a gea|ede g2a|geg Bde|AGA A2e|
A2a gea|ede ged|BGg gfg|Bde dBG|
Bde dBd|efg aea|geg Bde|AGA A2||

